X:566
%%etbk:tnset id:301,pos:2,rep:2x,ant:
%%etbk:pldat 2015-02-22T13:19,2015-02-04T16:10,2015-02-01T14:32,2014-12-29T16:43,2014-10-16T18:29,2014-10-15T18:16,2014-10-13T18:19,2014-10-10T15:16,2014-09-16T17:43,2014-09-13T12:54,2014-08-14T18:18,2014-08-13T19:30,2014-08-12T18:12,2014-08-11T18:26,2014-08-10T13:07,2014-08-06T18:50,2014-08-05T18:25,2014-08-03T16:39,2014-07-29T18:26,2014-07-28T18:54,2014-07-25T19:13,2014-07-23T18:51,2014-07-22T18:31,2014-07-21T20:31,2014-07-18T09:37,2014-07-14T17:01,2014-07-04T10:57,2014-07-03T10:10,2014-07-02T11:55,2014-06-30T11:06,2014-06-25T16:58,2014-06-23T18:52,2014-06-20T15:24,2014-06-19T18:15,2014-06-17T18:09,2014-06-15T13:23,2014-06-13T16:03,2014-06-12T18:32,2014-06-10T18:49,2014-06-09T13:56,2014-06-07T15:42,2014-06-04T16:06,2014-06-03T16:14,2014-06-02T18:25,2014-06-01T11:07,2014-05-31T16:55,2014-05-28T09:46,2014-05-22T18:28,2014-05-20T16:02,2014-05-17T15:31,2014-05-13T18:16,2014-05-07T17:39,2014-04-24T19:31,2014-04-23T15:57,2014-04-22T18:31,2014-04-21T14:28,2014-04-18T10:51,2014-04-14T10:44,2014-04-09T16:09,2014-04-07T18:17,2014-04-06T11:52,2014-04-03T19:23,2014-04-01T16:42,2014-03-29T15:32,2014-03-25T15:34,2014-03-24T18:13,2014-03-23T14:46,2014-03-22T15:35,2014-03-21T15:41,2014-03-18T15:29,2014-03-16T15:43,2014-03-15T16:02
T:Tom's Jig 2
Z: Piano Box Version by Martin Fleischmann
H: Created 2014-03-13 /  Last Modified 2014-07-04
M: 6/8
L: 1/8
R: jig
K: Emin
|: !1!EEE E2!3!G | !2!FEG !2!F!1!E!2!D | !1!EEE !3!GEG | !5!BAG !2!FED |
!1!EEE E2!3!G | !2!FEG !2!F!1!E!2!D | !1!EFG !4!AGA |1 !5!BAG FED :|2 !3!B!4!d!2!e !3!fga ||
|: !4!g!1!d!3!B !1!G2!5!b | !4!agb agf | !3!g!1!d!3!B !1!G2A | AGF GBd |
!5!g!3!d!2!B !1!G2!5!b | !4!agb ag!2!f | !4!ggg !3!fff |1 !2!e!1!d!2!B !1!d!2!e!3!f :|2 !2!e!1!d!3!B !2!A!1!G!2!F ||
P:Afro (Intro)
|:E2E AEG|EAE GzA|E2E AEG|EAE GzE:|
|:DDE EGG|AzA zAz|DDE EGG|DzD zDz:|


